src/assets/icons/home.svg

<svg width="20" height="20" viewBox="0 0 20 20" fill="none" xmlns="http://www.w3.org/2000/svg">
<path fill-rule="evenodd" clip-rule="evenodd" d="M10.0052 2.23047C9.24382 2.23047 8.49699 2.43909 7.84583 2.83368L3.67917 5.35868C3.06645 5.72998 2.55981 6.253 2.2082 6.87721C1.85658 7.50143 1.67186 8.20577 1.67188 8.92221V14.1655C1.67188 15.2706 2.11086 16.3304 2.89226 17.1118C3.67366 17.8932 4.73347 18.3322 5.83854 18.3322H14.1719C15.2769 18.3322 16.3368 17.8932 17.1182 17.1118C17.8996 16.3304 18.3385 15.2706 18.3385 14.1655V8.92137C18.3384 8.20511 18.1536 7.50079 17.802 6.87676C17.4504 6.25274 16.9438 5.72989 16.3313 5.35869L12.1646 2.83369C11.5134 2.4391 10.7666 2.23047 10.0052 2.23047ZM8.70959 4.25906C9.10029 4.02231 9.54838 3.89714 10.0052 3.89714C10.462 3.89714 10.9101 4.02231 11.3008 4.25906L15.4675 6.78406C15.835 7.00678 16.139 7.3205 16.3499 7.69491C16.5609 8.06927 16.6717 8.49168 16.6719 8.92137V14.1655C16.6719 14.8286 16.4085 15.4645 15.9396 15.9333C15.4708 16.4021 14.8349 16.6655 14.1719 16.6655H13.3385V14.1655C13.3385 13.2815 12.9874 12.4336 12.3622 11.8085C11.7371 11.1834 10.8893 10.8322 10.0052 10.8322C9.12115 10.8322 8.27331 11.1834 7.64818 11.8085C7.02306 12.4336 6.67187 13.2815 6.67187 14.1655V16.6655H5.83854C5.1755 16.6655 4.53962 16.4021 4.07077 15.9333C3.60193 15.4645 3.33854 14.8286 3.33854 14.1655V8.92221C3.33853 8.49234 3.44936 8.06972 3.66033 7.69518C3.8713 7.32065 4.17528 7.00684 4.54292 6.78406L8.70959 4.25906ZM11.1837 12.987C11.4963 13.2996 11.6719 13.7235 11.6719 14.1655V16.6655H8.33854V14.1655C8.33854 13.7235 8.51413 13.2996 8.8267 12.987C9.13926 12.6745 9.56318 12.4989 10.0052 12.4989C10.4472 12.4989 10.8712 12.6745 11.1837 12.987Z" fill="#4F9B90"/>
</svg>

<svg xmlns="http://www.w3.org/2000/svg" width="20" height="20" fill="none"><path fill="#4F9B90" fill-rule="evenodd" d="M10.005 2.23c-.761 0-1.508.21-2.16.604L3.68 5.359a4.17 4.17 0 0 0-2.007 3.563v5.243a4.167 4.167 0 0 0 4.167 4.167h8.333a4.167 4.167 0 0 0 4.166-4.167V8.922a4.17 4.17 0 0 0-2.007-3.562l-4.166-2.525a4.17 4.17 0 0 0-2.16-.604M8.71 4.26a2.5 2.5 0 0 1 2.59 0l4.167 2.524a2.5 2.5 0 0 1 1.205 2.137v5.245a2.5 2.5 0 0 1-2.5 2.5h-.834v-2.5a3.333 3.333 0 1 0-6.666 0v2.5h-.833a2.5 2.5 0 0 1-2.5-2.5V8.922a2.5 2.5 0 0 1 1.204-2.138zm2.474 8.727c.312.313.488.736.488 1.178v2.5H8.339v-2.5a1.667 1.667 0 0 1 2.845-1.178" clip-rule="evenodd"/></svg>
